X: 21857
T: Kishkeam Lasses, The
R: slide
M: 12/8
K: Dmajor
|:dcd e2 d c2 E E2 F|GFG B2 A F/G/FE DFA|
dcd e/f/ed c2 E EFG|1 A2 F GFE D3 D3:|2 A2 F GFE D3 a2 g||
f2 d d2 A def a2 f|e2 c A2 c e2 f gfe|
f/g/fd d2 A def a2 f|1 e2 c ABc d3 a2 g|2 e2 c ABc d3 e2 c||

